X: 1134
T: The Norfolk Hornipe (Ryan's / Cole's) 
T: The Men from Ulster (O'Neill's)
C: credited to W.H. Whiddon
M: 4/4
L: 1/8
R: Hornpipe
S: Ryans Mammoth Collection, 1883
S: ONeill's Music of Ireland: 1850 Melodies, #1701, 1903
K: G Major
D>B, | 
G,>B,D>G B>GD>B, | C>EA>B c>BA>c | B>dg>d e>cA>G | (3FGA (3GFE (3DED (3CB,A, | 
G,>B,D>G B>GD>B, | C>EA>B c>de>f | g>fg>e (3ded (3cBA | G>Bd>B g2 :|
|: B>c | 
d>gf>g e>gf>g | b>ga>f g>ed>B | (3cde (3ABc (3Bcd G>B | (3AGF (3AGE D2 Bc | 
d>gf>g e>gf>g | b>ga>f g>ed>B | c>de>f g>fg>e | d>Bc>A G2 :|
